;FLAVOR:Marlin
;TIME:20722
;Filament used: 16.1879m
;Layer height: 0.2
;MINX:76.5
;MINY:101.5
;MINZ:0.2
;MAXX:158.5
;MAXY:133.5
;MAXZ:180
;Generated with Cura_SteamEngine 4.6.2
M140 S60
M105
M190 S60
M104 S200
M105
M109 S200
M82 ;absolute extrusion mode
; Ender 3 Custom Start G-code
G92 E0 ; Reset Extruder
G28 ; Home all axes
G1 Z2.0 F3000 ; Move Z Axis up little to prevent scratching of Heat Bed
G1 X0.1 Y20 Z0.3 F5000.0 ; Move to start position
G1 X0.1 Y200.0 Z0.3 F1500.0 E15 ; Draw the first line
G1 X0.4 Y200.0 Z0.3 F5000.0 ; Move to side a little
G1 X0.4 Y20 Z0.3 F1500.0 E30 ; Draw the second line
G92 E0 ; Reset Extruder
G1 Z2.0 F3000 ; Move Z Axis up little to prevent scratching of Heat Bed
G1 X5 Y20 Z0.3 F5000.0 ; Move over to prevent blob squish
G92 E0
G92 E0
G1 F1500 E-6.5
;LAYER_COUNT:900
;LAYER:0
M107
G0 F6000 X147.637 Y102.311 Z0.2
;TYPE:SKIRT
G1 F1500 E0
G1 F1200 X148.539 Y102.364 E0.03005
G1 X149.432 Y102.496 E0.06008
G1 X150.31 Y102.707 E0.09011
G1 X151.166 Y102.995 E0.12015
G1 X151.993 Y103.357 E0.15018
G1 X152.785 Y103.792 E0.18023
G1 X153.536 Y104.294 E0.21027
G1 X154.239 Y104.861 E0.24031
G1 X154.889 Y105.488 E0.27035
G1 X155.481 Y106.17 E0.30039
G1 X156.011 Y106.901 E0.33042
G1 X156.473 Y107.677 E0.36046
G1 X156.866 Y108.49 E0.39049
G1 X157.184 Y109.335 E0.42052
G1 X157.427 Y110.205 E0.45056
G1 X157.592 Y111.093 E0.4806
G1 X157.687 Y112.223 E0.51832
G1 X157.7 Y112.83 E0.53851
G1 X157.699 Y121.89 E0.83985
G1 X157.69 Y122.617 E0.86403
G1 X157.639 Y123.519 E0.89408
G1 X157.508 Y124.413 E0.92413
G1 X157.299 Y125.291 E0.95415
G1 X157.013 Y126.148 E0.9842
G1 X156.652 Y126.976 E1.01424
G1 X156.22 Y127.768 E1.04425
G1 X155.719 Y128.52 E1.0743
G1 X155.153 Y129.224 E1.10435
G1 X154.528 Y129.875 E1.13436
G1 X153.847 Y130.469 E1.16442
G1 X153.116 Y131 E1.19447
G1 X152.342 Y131.464 E1.22449
G1 X151.529 Y131.858 E1.25453
G1 X150.685 Y132.178 E1.28456
G1 X149.815 Y132.423 E1.31462
G1 X148.928 Y132.589 E1.34463
G1 X147.777 Y132.687 E1.38305
G1 X147.17 Y132.7 E1.40325
G1 X88.207 Y132.7 E3.36436
G1 X87.377 Y132.69 E3.39197
G1 X86.476 Y132.639 E3.42199
G1 X85.582 Y132.507 E3.45204
G1 X84.704 Y132.298 E3.48206
G1 X83.847 Y132.011 E3.51212
G1 X83.02 Y131.65 E3.54213
G1 X82.227 Y131.217 E3.57219
G1 X81.476 Y130.716 E3.60221
G1 X80.772 Y130.15 E3.63226
G1 X80.121 Y129.524 E3.6623
G1 X79.528 Y128.843 E3.69233
G1 X78.998 Y128.112 E3.72236
G1 X78.534 Y127.337 E3.7524
G1 X78.14 Y126.524 E3.78245
G1 X77.82 Y125.68 E3.81247
G1 X77.576 Y124.81 E3.84253
G1 X77.41 Y123.922 E3.87257
G1 X77.313 Y122.767 E3.91112
G1 X77.3 Y122.158 E3.93138
G1 X77.301 Y113.036 E4.23478
G1 X77.31 Y112.371 E4.2569
G1 X77.362 Y111.469 E4.28695
G1 X77.494 Y110.576 E4.31698
G1 X77.704 Y109.698 E4.347
G1 X77.991 Y108.841 E4.37706
G1 X78.353 Y108.014 E4.40709
G1 X78.786 Y107.222 E4.43711
G1 X79.288 Y106.471 E4.46716
G1 X79.855 Y105.767 E4.49722
G1 X80.481 Y105.117 E4.52724
G1 X81.162 Y104.524 E4.55727
G1 X81.894 Y103.994 E4.58733
G1 X82.669 Y103.531 E4.61735
G1 X83.482 Y103.138 E4.64739
G1 X84.327 Y102.818 E4.67744
G1 X85.196 Y102.575 E4.70745
G1 X86.084 Y102.409 E4.7375
G1 X87.223 Y102.313 E4.77552
G1 X87.83 Y102.3 E4.79571
G1 X146.793 Y102.3 E6.75683
G1 X146.939 Y102.301 E6.76168
G1 X147.637 Y102.311 E6.7849
G0 F6000 X147.643 Y101.911
G1 F1200 X148.562 Y101.964 E6.81552
G1 X149.473 Y102.097 E6.84614
G1 X150.369 Y102.308 E6.87676
G1 X151.243 Y102.596 E6.90736
G1 X152.09 Y102.959 E6.93801
G1 X152.901 Y103.394 E6.96862
G1 X153.671 Y103.898 E6.99923
G1 X154.395 Y104.467 E7.02986
G1 X155.067 Y105.097 E7.06049
G1 X155.682 Y105.782 E7.09111
G1 X156.235 Y106.518 E7.12173
G1 X156.722 Y107.299 E7.15234
G1 X157.139 Y108.12 E7.18297
G1 X157.484 Y108.974 E7.21361
G1 X157.753 Y109.854 E7.24421
G1 X157.945 Y110.755 E7.27485
G1 X158.058 Y111.668 E7.30545
G1 X158.087 Y112.212 E7.32357
G1 X158.1 Y112.83 E7.34413
G1 X158.099 Y121.895 E7.64563
G1 X158.09 Y122.622 E7.66981
G1 X158.039 Y123.541 E7.70043
G1 X157.908 Y124.453 E7.73107
G1 X157.698 Y125.349 E7.76168
G1 X157.412 Y126.224 E7.7923
G1 X157.051 Y127.071 E7.82292
G1 X156.617 Y127.883 E7.85354
G1 X156.115 Y128.655 E7.88417
G1 X155.547 Y129.38 E7.9148
G1 X154.919 Y130.053 E7.94542
G1 X154.235 Y130.669 E7.97604
G1 X153.5 Y131.223 E8.00665
G1 X152.72 Y131.712 E8.03727
G1 X151.9 Y132.131 E8.0679
G1 X151.047 Y132.477 E8.09851
G1 X150.167 Y132.748 E8.12914
G1 X149.267 Y132.941 E8.15975
G1 X148.353 Y133.056 E8.19039
G1 X147.788 Y133.087 E8.20921
G1 X147.17 Y133.1 E8.22977
G1 X88.207 Y133.1 E10.19089
G1 X87.372 Y133.09 E10.21866
G1 X86.453 Y133.038 E10.24928
G1 X85.542 Y132.907 E10.27989
G1 X84.646 Y132.697 E10.3105
G1 X83.771 Y132.41 E10.34113
G1 X82.924 Y132.048 E10.37176
G1 X82.112 Y131.614 E10.40239
G1 X81.341 Y131.112 E10.43299
G1 X80.616 Y130.544 E10.46362
G1 X79.943 Y129.915 E10.49426
G1 X79.328 Y129.231 E10.52485
G1 X78.774 Y128.496 E10.55546
G1 X78.286 Y127.715 E10.58609
G1 X77.867 Y126.895 E10.61672
G1 X77.521 Y126.042 E10.64734
G1 X77.251 Y125.162 E10.67795
G1 X77.058 Y124.261 E10.7086
G1 X76.944 Y123.348 E10.7392
G1 X76.913 Y122.777 E10.75822
G1 X76.9 Y122.158 E10.77881
G1 X76.901 Y113.031 E11.08238
G1 X76.91 Y112.366 E11.1045
G1 X76.962 Y111.446 E11.13515
G1 X77.094 Y110.535 E11.16576
G1 X77.305 Y109.639 E11.19638
G1 X77.592 Y108.764 E11.22701
G1 X77.955 Y107.918 E11.25763
G1 X78.389 Y107.106 E11.28825
G1 X78.892 Y106.335 E11.31887
G1 X79.461 Y105.611 E11.3495
G1 X80.089 Y104.939 E11.38009
G1 X80.774 Y104.323 E11.41073
G1 X81.51 Y103.77 E11.44135
G1 X82.291 Y103.282 E11.47198
G1 X83.111 Y102.864 E11.50259
G1 X83.965 Y102.519 E11.53322
G1 X84.845 Y102.249 E11.56384
G1 X85.745 Y102.057 E11.59445
G1 X86.659 Y101.943 E11.62508
G1 X87.212 Y101.913 E11.6435
G1 X87.83 Y101.9 E11.66406
G1 X146.793 Y101.9 E13.62518
G1 X146.945 Y101.901 E13.63023
G1 X147.643 Y101.911 E13.65345
G0 F6000 X147.649 Y101.511
G1 F1200 X148.585 Y101.565 E13.68464
G1 X149.513 Y101.697 E13.71581
G1 X150.427 Y101.909 E13.74702
G1 X151.319 Y102.198 E13.7782
G1 X152.184 Y102.561 E13.80941
G1 X153.014 Y102.997 E13.84059
G1 X153.805 Y103.502 E13.8718
G1 X154.549 Y104.073 E13.90299
G1 X155.242 Y104.705 E13.93419
G1 X155.879 Y105.393 E13.96537
G1 X156.454 Y106.134 E13.99657
G1 X156.965 Y106.92 E14.02775
G1 X157.407 Y107.748 E14.05897
G1 X157.776 Y108.61 E14.09016
G1 X158.071 Y109.5 E14.12134
G1 X158.289 Y110.412 E14.15253
G1 X158.429 Y111.34 E14.18374
G1 X158.487 Y112.201 E14.21245
G1 X158.5 Y112.83 E14.23337
G1 X158.499 Y121.9 E14.53504
G1 X158.49 Y122.627 E14.55922
G1 X158.439 Y123.564 E14.59043
G1 X158.307 Y124.492 E14.62161
G1 X158.098 Y125.406 E14.65279
G1 X157.811 Y126.299 E14.68399
G1 X157.449 Y127.165 E14.71521
G1 X157.015 Y127.996 E14.74639
G1 X156.511 Y128.787 E14.77759
G1 X155.942 Y129.532 E14.80877
G1 X155.311 Y130.227 E14.83999
G1 X154.624 Y130.865 E14.87117
G1 X153.885 Y131.442 E14.90235
G1 X153.099 Y131.954 E14.93355
G1 X152.273 Y132.397 E14.96473
G1 X151.411 Y132.769 E14.99596
G1 X150.522 Y133.065 E15.02712
G1 X149.61 Y133.285 E15.05832
G1 X148.683 Y133.426 E15.08951
G1 X147.799 Y133.487 E15.11898
G1 X147.17 Y133.5 E15.13991
G1 X88.207 Y133.5 E17.10102
G1 X87.367 Y133.49 E17.12896
G1 X86.431 Y133.438 E17.16014
G1 X85.502 Y133.306 E17.19135
G1 X84.588 Y133.096 E17.22254
G1 X83.695 Y132.809 E17.25374
G1 X82.83 Y132.446 E17.28494
G1 X81.999 Y132.012 E17.31612
G1 X81.208 Y131.508 E17.34732
G1 X80.463 Y130.938 E17.37852
G1 X79.769 Y130.307 E17.40972
G1 X79.132 Y129.62 E17.44088
G1 X78.555 Y128.88 E17.47209
G1 X78.043 Y128.094 E17.50329
G1 X77.6 Y127.267 E17.53449
G1 X77.229 Y126.406 E17.56567
G1 X76.933 Y125.516 E17.59687
G1 X76.714 Y124.604 E17.62806
G1 X76.573 Y123.677 E17.65925
G1 X76.513 Y122.788 E17.68889
G1 X76.5 Y122.158 E17.70985
G1 X76.501 Y113.025 E18.01361
G1 X76.51 Y112.36 E18.03573
G1 X76.563 Y111.424 E18.06691
G1 X76.695 Y110.495 E18.09812
G1 X76.906 Y109.581 E18.12932
G1 X77.194 Y108.689 E18.1605
G1 X77.557 Y107.824 E18.1917
G1 X77.992 Y106.993 E18.22289
G1 X78.496 Y106.203 E18.25406
G1 X79.066 Y105.458 E18.28526
G1 X79.698 Y104.764 E18.31648
G1 X80.386 Y104.127 E18.34766
G1 X81.126 Y103.551 E18.37885
G1 X81.912 Y103.039 E18.41005
G1 X82.739 Y102.597 E18.44124
G1 X83.601 Y102.227 E18.47244
G1 X84.491 Y101.931 E18.50364
G1 X85.403 Y101.713 E18.53483
G1 X86.33 Y101.572 E18.56601
G1 X87.201 Y101.513 E18.59505
G1 X87.83 Y101.5 E18.61597
G1 X146.793 Y101.5 E20.57709
G1 X146.951 Y101.501 E20.58235
G1 X147.649 Y101.511 E20.60556
G1 F1500 E14.10556
;MESH:Shelf.stl
G0 F6000 X103.785 Y117.846
G0 X105.203 Y118.224
G0 X104.228 Y119.228
G0 X103.818 Y119.542
G0 X102.5 Y120.105
;TYPE:WALL-INNER
G1 F1500 E20.60556
G1 F1200 X103.174 Y120.017 E20.62817
G1 X103.803 Y119.756 E20.65082
G1 X104.342 Y119.342 E20.67343
G1 X104.756 Y118.803 E20.69603
G1 X105.017 Y118.174 E20.71868
G1 X105.105 Y117.5 E20.74129
G1 X105.017 Y116.826 E20.7639
G1 X104.756 Y116.197 E20.78655
G1 X104.342 Y115.658 E20.80915
G1 X103.803 Y115.244 E20.83176
G1 X103.174 Y114.983 E20.85441
G1 X102.5 Y114.895 E20.87702
G1 X101.826 Y114.983 E20.89962
G1 X101.197 Y115.244 E20.92227
G1 X100.658 Y115.658 E20.94488
G1 X100.244 Y116.197 E20.96748
G1 X99.983 Y116.826 E20.99013
G1 X99.895 Y117.5 E21.01274
G1 X99.983 Y118.174 E21.03535
G1 X100.244 Y118.803 E21.058
G1 X100.658 Y119.342 E21.0806
G1 X101.197 Y119.756 E21.10321
G1 X101.826 Y120.017 E21.12586
G1 X102.5 Y120.105 E21.14847
G0 F6000 X102.5 Y119.702
;TYPE:WALL-OUTER
G1 F1200 X103.07 Y119.627 E21.16759
G1 X103.601 Y119.407 E21.18671
G1 X104.057 Y119.057 E21.20582
G1 X104.407 Y118.601 E21.22494
G1 X104.627 Y118.07 E21.24406
G1 X104.702 Y117.5 E21.26318
G1 X104.627 Y116.93 E21.2823
G1 X104.407 Y116.399 E21.30142
G1 X104.057 Y115.943 E21.32054
G1 X103.601 Y115.593 E21.33966
G1 X103.07 Y115.373 E21.35878
G1 X102.5 Y115.298 E21.3779
G1 X101.93 Y115.373 E21.39702
G1 X101.399 Y115.593 E21.41614
G1 X100.943 Y115.943 E21.43526
G1 X100.593 Y116.399 E21.45437
G1 X100.373 Y116.93 E21.47349
G1 X100.298 Y117.5 E21.49261
G1 X100.373 Y118.07 E21.51174
G1 X100.593 Y118.601 E21.53085
G1 X100.943 Y119.057 E21.54997
G1 X101.399 Y119.407 E21.56909
G1 X101.93 Y119.627 E21.58821
G1 X102.5 Y119.702 E21.60733
G0 F6000 X102.5 Y120.142
G1 F1500 E15.10733
G0 F6000 X103.899 Y119.922
G0 X103.163 Y118.653
G0 X131.837 Y118.653
G0 X131.101 Y119.922
G0 X132.5 Y120.105
;TYPE:WALL-INNER
G1 F1500 E21.60733
G1 F1200 X133.174 Y120.017 E21.62994
G1 X133.803 Y119.756 E21.65259
G1 X134.342 Y119.342 E21.67519
G1 X134.756 Y118.803 E21.6978
G1 X135.017 Y118.174 E21.72045
G1 X135.105 Y117.5 E21.74305
G1 X135.017 Y116.826 E21.76566
G1 X134.756 Y116.197 E21.78831
G1 X134.342 Y115.658 E21.81092
G1 X133.803 Y115.244 E21.83352
G1 X133.174 Y114.983 E21.85617
G1 X132.5 Y114.895 E21.87878
G1 X131.826 Y114.983 E21.90139
G1 X131.197 Y115.244 E21.92404
G1 X130.658 Y115.658 E21.94664
G1 X130.244 Y116.197 E21.96925
G1 X129.983 Y116.826 E21.9919
G1 X129.895 Y117.5 E22.01451
G1 X129.983 Y118.174 E22.03711
G1 X130.244 Y118.803 E22.05976
G1 X130.658 Y119.342 E22.08237
G1 X131.197 Y119.756 E22.10497
G1 X131.826 Y120.017 E22.12762
G1 X132.5 Y120.105 E22.15023
G0 F6000 X132.5 Y119.702
;TYPE:WALL-OUTER
G1 F1200 X133.07 Y119.627 E22.16935
G1 X133.601 Y119.407 E22.18847
G1 X134.057 Y119.057 E22.20759
G1 X134.407 Y118.601 E22.22671
G1 X134.627 Y118.07 E22.24583
G1 X134.702 Y117.5 E22.26495
G1 X134.627 Y116.93 E22.28407
G1 X134.407 Y116.399 E22.30319
G1 X134.057 Y115.943 E22.3223
G1 X133.601 Y115.593 E22.34142
G1 X133.07 Y115.373 E22.36054
G1 X132.5 Y115.298 E22.37966
G1 X131.93 Y115.373 E22.39878
G1 X131.399 Y115.593 E22.4179
G1 X130.943 Y115.943 E22.43702
G1 X130.593 Y116.399 E22.45614
G1 X130.373 Y116.93 E22.47526
G1 X130.298 Y117.5 E22.49438
G1 X130.373 Y118.07 E22.5135
G1 X130.593 Y118.601 E22.53262
G1 X130.943 Y119.057 E22.55174
G1 X131.399 Y119.407 E22.57085
G1 X131.93 Y119.627 E22.58997
G1 X132.5 Y119.702 E22.60909
G0 F6000 X132.5 Y120.142
G1 F1500 E16.10909
G0 F6000 X131.101 Y119.922
G0 X131.101 Y121.69
G0 X88.1 Y121.9
;TYPE:WALL-INNER
G1 F1500 E22.60909
G1 F1200 X88.1 Y113.1 E22.90178
G1 X146.9 Y113.1 E24.85748
G1 X146.9 Y121.9 E25.15017
G1 X88.1 Y121.9 E27.10586
G0 F6000 X87.7 Y122.3
;TYPE:WALL-OUTER
G1 F1200 X87.7 Y112.7 E27.42516
G1 X147.3 Y112.7 E29.40747
G1 X147.3 Y122.3 E29.72676
G1 X87.7 Y122.3 E31.70907
G0 F6000 X87.97 Y122.03
G0 X88.21 Y121.51
G0 X88.49 Y121.51
;TYPE:SKIN
G1 F1200 X88.49 Y113.49 E31.97581
G1 X146.51 Y113.49 E33.90557
G1 X146.51 Y121.51 E34.17231
G1 X88.49 Y121.51 E36.10207
G1 F1500 E29.60207
G0 F6000 X88.21 Y121.51
G0 X88.31 Y118.204
G0 X86.835 Y118.204
G0 X101.171 Y117.5
G0 X99.703 Y117.5
G0 X99.876 Y118.204
G0 X99.603 Y118.276
G1 F1500 E36.10207
G1 F1200 X99.903 Y119 E36.12813
G1 X100.379 Y119.621 E36.15416
G1 X101 Y120.097 E36.18018
G1 X101.724 Y120.397 E36.20624
G1 X102.5 Y120.499 E36.23228
G1 X103.276 Y120.397 E36.25831
G1 X104 Y120.097 E36.28437
G1 X104.621 Y119.621 E36.3104
G1 X105.097 Y119 E36.33642
G1 X105.397 Y118.276 E36.36249
G1 X105.499 Y117.5 E36.38852
G1 X105.397 Y116.724 E36.41455
G1 X105.097 Y116 E36.44062
G1 X104.621 Y115.379 E36.46664
G1 X104 Y114.903 E36.49267
G1 X103.276 Y114.603 E36.51873
G1 X102.5 Y114.501 E36.54476
G1 X101.724 Y114.603 E36.5708
G1 X101 Y114.903 E36.59686
G1 X100.379 Y115.379 E36.62289
G1 X99.903 Y116 E36.64891
G1 X99.603 Y116.724 E36.67498
G1 X99.501 Y117.5 E36.70101
G1 X99.603 Y118.276 E36.72704
G1 F1500 E30.22704
G0 F6000 X99.876 Y118.204
G0 X100.772 Y119.228
G0 X101.279 Y119.616
G0 X101.868 Y119.86
G0 X102.5 Y119.944
G0 X103.132 Y119.86
G0 X103.721 Y119.616
G0 X104.228 Y119.228
G0 X104.447 Y118.941
G0 X105.297 Y117.5
G0 X103.829 Y117.5
G0 X131.171 Y117.5
G0 X129.703 Y117.5
G0 X129.784 Y117.501
G0 X129.501 Y117.5
G1 F1500 E36.72704
G1 F1200 X129.603 Y118.276 E36.75307
G1 X129.903 Y119 E36.77914
G1 X130.379 Y119.621 E36.80516
G1 X131 Y120.097 E36.83119
G1 X131.724 Y120.397 E36.85725
G1 X132.5 Y120.499 E36.88328
G1 X133.276 Y120.397 E36.90931
G1 X134 Y120.097 E36.93538
G1 X134.621 Y119.621 E36.9614
G1 X135.097 Y119 E36.98743
G1 X135.397 Y118.276 E37.01349
G1 X135.499 Y117.5 E37.03953
G1 X135.397 Y116.724 E37.06556
G1 X135.097 Y116 E37.09162
G1 X134.621 Y115.379 E37.11765
G1 X134 Y114.903 E37.14367
G1 X133.276 Y114.603 E37.16974
G1 X132.5 Y114.501 E37.19577
G1 X131.724 Y114.603 E37.2218
G1 X131 Y114.903 E37.24787
G1 X130.379 Y115.379 E37.27389
G1 X129.903 Y116 E37.29992
G1 X129.603 Y116.724 E37.32598
G1 X129.501 Y117.5 E37.35201
G1 F1500 E30.85201
G0 F6000 X129.784 Y117.501
G0 X130.384 Y116.279
G0 X130.772 Y115.772
G0 X131.279 Y115.384
G0 X131.868 Y115.14
G0 X132.5 Y115.056
G0 X133.132 Y115.14
G0 X133.721 Y115.384
G0 X134.008 Y115.603
G0 X135.203 Y116.776
G0 X133.785 Y117.154
G0 X148.165 Y116.776
G0 X146.69 Y116.776
G0 X146.79 Y114.105
G0 X146.349 Y114.105
G1 F1500 E37.35201
G1 F1200 X145.893 Y113.649 E37.37346
G0 F6000 X145.328 Y113.649
G1 F1200 X146.349 Y114.67 E37.42149
G0 F6000 X146.349 Y115.236
G1 F1200 X144.762 Y113.649 E37.49614
G0 F6000 X144.196 Y113.649
G1 F1200 X146.349 Y115.802 E37.59741
G0 F6000 X146.349 Y116.367
G1 F1200 X143.631 Y113.649 E37.72525
G0 F6000 X143.065 Y113.649
G1 F1200 X146.349 Y116.933 E37.87972
G0 F6000 X146.349 Y117.499
G1 F1200 X142.499 Y113.649 E38.06081
G0 F6000 X141.934 Y113.649
G1 F1200 X146.349 Y118.064 E38.26848
G0 F6000 X146.349 Y118.63
G1 F1200 X141.368 Y113.649 E38.50277
G0 F6000 X140.802 Y113.649
G1 F1200 X146.349 Y119.196 E38.76369
G0 F6000 X146.349 Y119.761
G1 F1200 X140.236 Y113.649 E39.0512
G0 F6000 X139.671 Y113.649
G1 F1200 X146.349 Y120.327 E39.36531
G0 F6000 X146.349 Y120.893
G1 F1200 X139.105 Y113.649 E39.70605
G0 F6000 X138.539 Y113.649
G1 F1200 X146.239 Y121.349 E40.06823
G0 F6000 X145.673 Y121.349
G1 F1200 X137.974 Y113.649 E40.43039
G0 F6000 X137.408 Y113.649
G1 F1200 X145.108 Y121.349 E40.79258
G0 F6000 X144.542 Y121.349
G1 F1200 X136.842 Y113.649 E41.15476
G0 F6000 X136.277 Y113.649
G1 F1200 X143.976 Y121.349 E41.51692
G0 F6000 X143.411 Y121.349
G1 F1200 X135.711 Y113.649 E41.87911
G0 F6000 X135.145 Y113.649
G1 F1200 X142.845 Y121.349 E42.24129
G0 F6000 X142.279 Y121.349
G1 F1200 X134.58 Y113.649 E42.60345
G0 F6000 X134.014 Y113.649
