;FLAVOR:Marlin
;TIME:22827
;Filament used: 19.8343m
;Layer height: 0.2
;MINX:6.5
;MINY:76.5
;MINZ:0.2
;MAXX:228.5
;MAXY:158.5
;MAXZ:43
;Generated with Cura_SteamEngine 4.6.2
M140 S60
M105
M190 S60
M104 S200
M105
M109 S200
M82 ;absolute extrusion mode
; Ender 3 Custom Start G-code
G92 E0 ; Reset Extruder
G28 ; Home all axes
G1 Z2.0 F3000 ; Move Z Axis up little to prevent scratching of Heat Bed
G1 X0.1 Y20 Z0.3 F5000.0 ; Move to start position
G1 X0.1 Y200.0 Z0.3 F1500.0 E15 ; Draw the first line
G1 X0.4 Y200.0 Z0.3 F5000.0 ; Move to side a little
G1 X0.4 Y20 Z0.3 F1500.0 E30 ; Draw the second line
G92 E0 ; Reset Extruder
G1 Z2.0 F3000 ; Move Z Axis up little to prevent scratching of Heat Bed
G1 X5 Y20 Z0.3 F5000.0 ; Move over to prevent blob squish
G92 E0
G92 E0
G1 F1500 E-6.5
;LAYER_COUNT:215
;LAYER:0
M107
G0 F6000 X217.637 Y77.311 Z0.2
;TYPE:SKIRT
G1 F1500 E0
G1 F1200 X218.539 Y77.364 E0.03005
G1 X219.432 Y77.496 E0.06008
G1 X220.31 Y77.707 E0.09011
G1 X221.166 Y77.995 E0.12015
G1 X221.993 Y78.357 E0.15018
G1 X222.785 Y78.792 E0.18023
G1 X223.536 Y79.294 E0.21027
G1 X224.239 Y79.861 E0.24031
G1 X224.889 Y80.488 E0.27035
G1 X225.481 Y81.17 E0.30039
G1 X226.011 Y81.901 E0.33042
G1 X226.473 Y82.677 E0.36046
G1 X226.866 Y83.49 E0.39049
G1 X227.184 Y84.335 E0.42052
G1 X227.427 Y85.205 E0.45056
G1 X227.592 Y86.093 E0.4806
G1 X227.687 Y87.223 E0.51832
G1 X227.7 Y87.83 E0.53851
G1 X227.7 Y146.764 E2.49867
G1 X227.69 Y147.617 E2.52704
G1 X227.639 Y148.519 E2.55709
G1 X227.508 Y149.413 E2.58714
G1 X227.299 Y150.291 E2.61716
G1 X227.013 Y151.148 E2.64721
G1 X226.652 Y151.976 E2.67725
G1 X226.22 Y152.768 E2.70726
G1 X225.719 Y153.52 E2.73731
G1 X225.153 Y154.224 E2.76736
G1 X224.528 Y154.875 E2.79737
G1 X223.847 Y155.469 E2.82743
G1 X223.116 Y156 E2.85748
G1 X222.342 Y156.464 E2.88749
G1 X221.529 Y156.858 E2.91754
G1 X220.685 Y157.178 E2.94756
G1 X219.815 Y157.423 E2.97762
G1 X218.928 Y157.589 E3.00764
G1 X217.777 Y157.687 E3.04606
G1 X217.17 Y157.7 E3.06625
G1 X18.207 Y157.7 E9.68379
G1 X17.377 Y157.69 E9.7114
G1 X16.476 Y157.639 E9.74141
G1 X15.582 Y157.507 E9.77147
G1 X14.704 Y157.298 E9.80149
G1 X13.847 Y157.011 E9.83155
G1 X13.02 Y156.65 E9.86156
G1 X12.227 Y156.217 E9.89161
G1 X11.476 Y155.716 E9.92164
G1 X10.772 Y155.15 E9.95168
G1 X10.121 Y154.524 E9.98172
G1 X9.528 Y153.843 E10.01175
G1 X8.998 Y153.112 E10.04179
G1 X8.534 Y152.337 E10.07183
G1 X8.14 Y151.524 E10.10188
G1 X7.82 Y150.68 E10.1319
G1 X7.576 Y149.81 E10.16195
G1 X7.41 Y148.922 E10.192
G1 X7.313 Y147.767 E10.23055
G1 X7.3 Y147.158 E10.25081
G1 X7.3 Y88.174 E12.21263
G1 X7.31 Y87.371 E12.23934
G1 X7.362 Y86.469 E12.26939
G1 X7.494 Y85.576 E12.29941
G1 X7.704 Y84.698 E12.32944
G1 X7.991 Y83.841 E12.3595
G1 X8.353 Y83.014 E12.38952
G1 X8.786 Y82.222 E12.41954
G1 X9.288 Y81.471 E12.44959
G1 X9.855 Y80.767 E12.47965
G1 X10.481 Y80.117 E12.50967
G1 X11.162 Y79.524 E12.5397
G1 X11.894 Y78.994 E12.56976
G1 X12.669 Y78.531 E12.59979
G1 X13.482 Y78.138 E12.62982
G1 X14.327 Y77.818 E12.65987
G1 X15.196 Y77.575 E12.68989
G1 X16.084 Y77.409 E12.71993
G1 X17.223 Y77.313 E12.75795
G1 X17.83 Y77.3 E12.77814
G1 X216.793 Y77.3 E19.39568
G1 X216.939 Y77.301 E19.40054
G1 X217.637 Y77.311 E19.42375
G0 F6000 X217.643 Y76.911
G1 F1200 X218.562 Y76.964 E19.45437
G1 X219.473 Y77.097 E19.48499
G1 X220.369 Y77.308 E19.51561
G1 X221.243 Y77.596 E19.54621
G1 X222.09 Y77.959 E19.57686
G1 X222.901 Y78.394 E19.60747
G1 X223.671 Y78.898 E19.63808
G1 X224.395 Y79.467 E19.66871
G1 X225.067 Y80.097 E19.69935
G1 X225.682 Y80.782 E19.72996
G1 X226.235 Y81.518 E19.76058
G1 X226.722 Y82.299 E19.7912
G1 X227.139 Y83.12 E19.82182
G1 X227.484 Y83.974 E19.85246
G1 X227.753 Y84.854 E19.88306
G1 X227.945 Y85.755 E19.9137
G1 X228.058 Y86.668 E19.9443
G1 X228.087 Y87.212 E19.96242
G1 X228.1 Y87.83 E19.98298
G1 X228.1 Y146.764 E21.94313
G1 X228.09 Y147.622 E21.97167
G1 X228.039 Y148.541 E22.00229
G1 X227.908 Y149.453 E22.03293
G1 X227.698 Y150.349 E22.06354
G1 X227.412 Y151.224 E22.09416
G1 X227.051 Y152.071 E22.12478
G1 X226.617 Y152.883 E22.1554
G1 X226.115 Y153.655 E22.18603
G1 X225.547 Y154.38 E22.21666
G1 X224.919 Y155.053 E22.24728
G1 X224.235 Y155.669 E22.27789
G1 X223.5 Y156.223 E22.30851
G1 X222.72 Y156.712 E22.33913
G1 X221.9 Y157.131 E22.36975
G1 X221.047 Y157.477 E22.40037
G1 X220.167 Y157.748 E22.431
G1 X219.267 Y157.941 E22.46161
G1 X218.353 Y158.056 E22.49225
G1 X217.788 Y158.087 E22.51107
G1 X217.17 Y158.1 E22.53163
G1 X18.207 Y158.1 E29.14917
G1 X17.372 Y158.09 E29.17694
G1 X16.453 Y158.038 E29.20755
G1 X15.542 Y157.907 E29.23817
G1 X14.646 Y157.697 E29.26878
G1 X13.771 Y157.41 E29.2994
G1 X12.924 Y157.048 E29.33004
G1 X12.112 Y156.614 E29.36066
G1 X11.341 Y156.112 E29.39126
G1 X10.616 Y155.544 E29.4219
G1 X9.943 Y154.915 E29.45253
G1 X9.328 Y154.231 E29.48313
G1 X8.774 Y153.496 E29.51374
G1 X8.286 Y152.715 E29.54437
G1 X7.867 Y151.895 E29.575
G1 X7.521 Y151.042 E29.60561
G1 X7.251 Y150.162 E29.63623
G1 X7.058 Y149.261 E29.66688
G1 X6.944 Y148.348 E29.69748
G1 X6.913 Y147.777 E29.7165
G1 X6.9 Y147.158 E29.73709
G1 X6.9 Y88.174 E31.69891
G1 X6.91 Y87.366 E31.72578
G1 X6.962 Y86.446 E31.75643
G1 X7.094 Y85.535 E31.78705
G1 X7.305 Y84.639 E31.81766
G1 X7.592 Y83.764 E31.84829
G1 X7.955 Y82.918 E31.87891
G1 X8.389 Y82.106 E31.90953
G1 X8.892 Y81.335 E31.94015
G1 X9.461 Y80.611 E31.97078
G1 X10.089 Y79.939 E32.00137
G1 X10.774 Y79.323 E32.03201
G1 X11.51 Y78.77 E32.06263
G1 X12.291 Y78.282 E32.09326
G1 X13.111 Y77.864 E32.12387
G1 X13.965 Y77.519 E32.15451
G1 X14.845 Y77.249 E32.18512
G1 X15.745 Y77.057 E32.21573
G1 X16.659 Y76.943 E32.24637
G1 X17.212 Y76.913 E32.26479
G1 X17.83 Y76.9 E32.28535
G1 X216.793 Y76.9 E38.90288
G1 X216.945 Y76.901 E38.90794
G1 X217.643 Y76.911 E38.93116
G0 F6000 X217.649 Y76.511
G1 F1200 X218.585 Y76.565 E38.96234
G1 X219.513 Y76.697 E38.99351
G1 X220.427 Y76.909 E39.02472
G1 X221.319 Y77.198 E39.05591
G1 X222.184 Y77.561 E39.08711
G1 X223.014 Y77.997 E39.11829
G1 X223.805 Y78.502 E39.1495
G1 X224.549 Y79.073 E39.1807
G1 X225.242 Y79.705 E39.21189
G1 X225.879 Y80.393 E39.24308
G1 X226.454 Y81.134 E39.27427
G1 X226.965 Y81.92 E39.30545
G1 X227.407 Y82.748 E39.33667
G1 X227.776 Y83.61 E39.36786
G1 X228.071 Y84.5 E39.39904
G1 X228.289 Y85.412 E39.43023
G1 X228.429 Y86.34 E39.46145
G1 X228.487 Y87.201 E39.49015
G1 X228.5 Y87.83 E39.51107
G1 X228.5 Y146.764 E41.47123
G1 X228.49 Y147.627 E41.49993
G1 X228.439 Y148.564 E41.53114
G1 X228.307 Y149.492 E41.56232
G1 X228.098 Y150.406 E41.5935
G1 X227.811 Y151.299 E41.6247
G1 X227.449 Y152.165 E41.65592
G1 X227.015 Y152.996 E41.6871
G1 X226.511 Y153.787 E41.7183
G1 X225.942 Y154.532 E41.74948
G1 X225.311 Y155.227 E41.7807
G1 X224.624 Y155.865 E41.81188
G1 X223.885 Y156.442 E41.84306
G1 X223.099 Y156.954 E41.87426
G1 X222.273 Y157.397 E41.90544
G1 X221.411 Y157.769 E41.93667
G1 X220.522 Y158.065 E41.96783
G1 X219.61 Y158.285 E41.99903
G1 X218.683 Y158.426 E42.03022
G1 X217.799 Y158.487 E42.05969
G1 X217.17 Y158.5 E42.08062
G1 X18.207 Y158.5 E48.69815
G1 X17.367 Y158.49 E48.72609
G1 X16.431 Y158.438 E48.75727
G1 X15.502 Y158.306 E48.78848
G1 X14.588 Y158.096 E48.81967
G1 X13.695 Y157.809 E48.85087
G1 X12.83 Y157.446 E48.88207
G1 X11.999 Y157.012 E48.91325
G1 X11.208 Y156.508 E48.94445
G1 X10.463 Y155.938 E48.97565
G1 X9.769 Y155.307 E49.00685
G1 X9.132 Y154.62 E49.03801
G1 X8.555 Y153.88 E49.06922
G1 X8.043 Y153.094 E49.10042
G1 X7.6 Y152.267 E49.13162
G1 X7.229 Y151.406 E49.1628
G1 X6.933 Y150.516 E49.194
G1 X6.714 Y149.604 E49.22519
G1 X6.573 Y148.677 E49.25638
G1 X6.513 Y147.788 E49.28602
G1 X6.5 Y147.158 E49.30697
G1 X6.5 Y88.174 E51.26879
G1 X6.51 Y87.36 E51.29587
G1 X6.563 Y86.424 E51.32705
G1 X6.695 Y85.495 E51.35826
G1 X6.906 Y84.581 E51.38946
G1 X7.194 Y83.689 E51.42063
G1 X7.557 Y82.824 E51.45183
G1 X7.992 Y81.993 E51.48303
G1 X8.496 Y81.203 E51.5142
G1 X9.066 Y80.458 E51.5454
G1 X9.698 Y79.764 E51.57662
G1 X10.386 Y79.127 E51.6078
G1 X11.126 Y78.551 E51.63899
G1 X11.912 Y78.039 E51.67019
G1 X12.739 Y77.597 E51.70138
G1 X13.601 Y77.227 E51.73258
G1 X14.491 Y76.931 E51.76377
G1 X15.403 Y76.713 E51.79496
G1 X16.33 Y76.572 E51.82615
G1 X17.201 Y76.513 E51.85518
G1 X17.83 Y76.5 E51.87611
G1 X216.793 Y76.5 E58.49365
G1 X216.951 Y76.501 E58.4989
G1 X217.649 Y76.511 E58.52212
G1 F1500 E52.02212
;MESH:Side Frame.stl
G0 F6000 X212.846 Y101.215
G0 X213.224 Y99.797
G0 X211.868 Y100.14
G0 X211.279 Y100.384
G0 X210.772 Y100.772
G0 X210.384 Y101.279
G0 X210.14 Y101.868
G0 X210.056 Y102.5
G0 X210.14 Y103.132
G0 X210.337 Y103.609
G0 X211.197 Y104.756
;TYPE:WALL-INNER
G1 F1500 E58.52212
G1 F1200 X211.826 Y105.017 E58.54477
G1 X212.5 Y105.105 E58.56738
G1 X213.174 Y105.017 E58.58998
G1 X213.803 Y104.756 E58.61263
G1 X214.342 Y104.342 E58.63524
G1 X214.756 Y103.803 E58.65784
G1 X215.017 Y103.174 E58.68049
G1 X215.105 Y102.5 E58.7031
G1 X215.017 Y101.826 E58.72571
G1 X214.756 Y101.197 E58.74836
G1 X214.342 Y100.658 E58.77096
G1 X213.803 Y100.244 E58.79357
G1 X213.174 Y99.983 E58.81622
G1 X212.5 Y99.895 E58.83883
G1 X211.826 Y99.983 E58.86144
G1 X211.197 Y100.244 E58.88409
G1 X210.658 Y100.658 E58.90669
G1 X210.244 Y101.197 E58.9293
G1 X209.983 Y101.826 E58.95195
G1 X209.895 Y102.5 E58.97455
G1 X209.983 Y103.174 E58.99716
G1 X210.244 Y103.803 E59.01981
G1 X210.658 Y104.342 E59.04242
G1 X211.197 Y104.756 E59.06502
G0 F6000 X211.399 Y104.407
;TYPE:WALL-OUTER
G1 F1200 X211.93 Y104.627 E59.08414
G1 X212.5 Y104.702 E59.10326
G1 X213.07 Y104.627 E59.12238
G1 X213.601 Y104.407 E59.1415
G1 X214.057 Y104.057 E59.16062
G1 X214.407 Y103.601 E59.17974
G1 X214.627 Y103.07 E59.19885
G1 X214.702 Y102.5 E59.21798
G1 X214.627 Y101.93 E59.2371
G1 X214.407 Y101.399 E59.25621
G1 X214.057 Y100.943 E59.27533
G1 X213.601 Y100.593 E59.29445
G1 X213.07 Y100.373 E59.31357
G1 X212.5 Y100.298 E59.33269
G1 X211.93 Y100.373 E59.35181
G1 X211.399 Y100.593 E59.37093
G1 X210.943 Y100.943 E59.39005
G1 X210.593 Y101.399 E59.40917
G1 X210.373 Y101.93 E59.42828
G1 X210.298 Y102.5 E59.44741
G1 X210.373 Y103.07 E59.46653
G1 X210.593 Y103.601 E59.48564
G1 X210.943 Y104.057 E59.50476
G1 X211.399 Y104.407 E59.52388
G0 F6000 X211.179 Y104.788
G1 F1500 E53.02388
G0 F6000 X211.776 Y105.203
G0 X212.154 Y103.785
G0 X212.154 Y131.215
G0 X211.776 Y129.797
G0 X210.772 Y130.772
G0 X210.384 Y131.279
G0 X210.14 Y131.868
G0 X210.056 Y132.5
G0 X210.123 Y133.011
G0 X210.658 Y134.342
;TYPE:WALL-INNER
G1 F1500 E59.52388
G1 F1200 X211.197 Y134.756 E59.54649
G1 X211.826 Y135.017 E59.56914
G1 X212.5 Y135.105 E59.59175
G1 X213.174 Y135.017 E59.61435
G1 X213.803 Y134.756 E59.637
G1 X214.342 Y134.342 E59.65961
G1 X214.756 Y133.803 E59.68221
G1 X215.017 Y133.174 E59.70486
G1 X215.105 Y132.5 E59.72747
G1 X215.017 Y131.826 E59.75008
G1 X214.756 Y131.197 E59.77273
G1 X214.342 Y130.658 E59.79533
G1 X213.803 Y130.244 E59.81794
G1 X213.174 Y129.983 E59.84059
G1 X212.5 Y129.895 E59.8632
G1 X211.826 Y129.983 E59.88581
G1 X211.197 Y130.244 E59.90846
G1 X210.658 Y130.658 E59.93106
G1 X210.244 Y131.197 E59.95367
G1 X209.983 Y131.826 E59.97632
G1 X209.895 Y132.5 E59.99892
G1 X209.983 Y133.174 E60.02153
G1 X210.244 Y133.803 E60.04418
G1 X210.658 Y134.342 E60.06679
G0 F6000 X210.943 Y134.057
;TYPE:WALL-OUTER
G1 F1200 X211.399 Y134.407 E60.08591
G1 X211.93 Y134.627 E60.10502
G1 X212.5 Y134.702 E60.12414
G1 X213.07 Y134.627 E60.14327
G1 X213.601 Y134.407 E60.16238
G1 X214.057 Y134.057 E60.1815
G1 X214.407 Y133.601 E60.20062
G1 X214.627 Y133.07 E60.21974
G1 X214.702 Y132.5 E60.23886
G1 X214.627 Y131.93 E60.25798
G1 X214.407 Y131.399 E60.2771
G1 X214.057 Y130.943 E60.29622
G1 X213.601 Y130.593 E60.31534
G1 X213.07 Y130.373 E60.33445
G1 X212.5 Y130.298 E60.35357
G1 X211.93 Y130.373 E60.3727
G1 X211.399 Y130.593 E60.39181
G1 X210.943 Y130.943 E60.41093
G1 X210.593 Y131.399 E60.43005
G1 X210.373 Y131.93 E60.44917
G1 X210.298 Y132.5 E60.46829
G1 X210.373 Y133.07 E60.48741
G1 X210.593 Y133.601 E60.50653
G1 X210.943 Y134.057 E60.52565
G0 F6000 X210.632 Y134.368
G1 F1500 E54.02565
G0 F6000 X209.797 Y133.224
G0 X211.215 Y132.846
G0 X158.653 Y133.163
G0 X159.922 Y133.899
G0 X158.721 Y134.616
G0 X158.244 Y134.813
G0 X156.826 Y135.017
;TYPE:WALL-INNER
G1 F1500 E60.52565
G1 F1200 X157.5 Y135.105 E60.54826
G1 X158.174 Y135.017 E60.57086
G1 X158.803 Y134.756 E60.59351
G1 X159.342 Y134.342 E60.61612
G1 X159.756 Y133.803 E60.63872
G1 X160.017 Y133.174 E60.66137
G1 X160.105 Y132.5 E60.68398
G1 X160.017 Y131.826 E60.70659
G1 X159.756 Y131.197 E60.72924
G1 X159.342 Y130.658 E60.75184
G1 X158.803 Y130.244 E60.77445
G1 X158.174 Y129.983 E60.7971
G1 X157.5 Y129.895 E60.81971
G1 X156.826 Y129.983 E60.84231
G1 X156.197 Y130.244 E60.86496
G1 X155.658 Y130.658 E60.88757
G1 X155.244 Y131.197 E60.91017
G1 X154.983 Y131.826 E60.93282
G1 X154.895 Y132.5 E60.95543
G1 X154.983 Y133.174 E60.97804
G1 X155.244 Y133.803 E61.00069
G1 X155.658 Y134.342 E61.0233
G1 X156.197 Y134.756 E61.0459
G1 X156.826 Y135.017 E61.06855
G0 F6000 X156.93 Y134.627
;TYPE:WALL-OUTER
G1 F1200 X157.5 Y134.702 E61.08767
G1 X158.07 Y134.627 E61.10679
G1 X158.601 Y134.407 E61.12591
G1 X159.057 Y134.057 E61.14503
G1 X159.407 Y133.601 E61.16415
G1 X159.627 Y133.07 E61.18327
G1 X159.702 Y132.5 E61.20239
G1 X159.627 Y131.93 E61.22151
G1 X159.407 Y131.399 E61.24063
G1 X159.057 Y130.943 E61.25975
G1 X158.601 Y130.593 E61.27886
G1 X158.07 Y130.373 E61.29798
G1 X157.5 Y130.298 E61.3171
G1 X156.93 Y130.373 E61.33622
G1 X156.399 Y130.593 E61.35534
G1 X155.943 Y130.943 E61.37446
G1 X155.593 Y131.399 E61.39358
G1 X155.373 Y131.93 E61.4127
G1 X155.298 Y132.5 E61.43182
G1 X155.373 Y133.07 E61.45094
G1 X155.593 Y133.601 E61.47006
G1 X155.943 Y134.057 E61.48918
G1 X156.399 Y134.407 E61.5083
G1 X156.93 Y134.627 E61.52741
G0 F6000 X156.817 Y135.052
G1 F1500 E55.02741
G0 F6000 X155.772 Y134.228
G0 X155.384 Y133.721
G0 X155.14 Y133.132
G0 X155.056 Y132.5
G0 X155.14 Y131.868
G0 X155.384 Y131.279
G0 X155.772 Y130.772
G0 X156.059 Y130.553
G0 X157.5 Y129.703
G0 X157.5 Y131.171
G0 X157.5 Y103.829
G0 X157.5 Y105.297
G0 X156.826 Y105.017
;TYPE:WALL-INNER
G1 F1500 E61.52741
G1 F1200 X157.5 Y105.105 E61.55002
G1 X158.174 Y105.017 E61.57263
G1 X158.803 Y104.756 E61.59528
G1 X159.342 Y104.342 E61.61788
G1 X159.756 Y103.803 E61.64049
G1 X160.017 Y103.174 E61.66314
G1 X160.105 Y102.5 E61.68575
G1 X160.017 Y101.826 E61.70835
G1 X159.756 Y101.197 E61.731
G1 X159.342 Y100.658 E61.75361
G1 X158.803 Y100.244 E61.77621
G1 X158.174 Y99.983 E61.79886
G1 X157.5 Y99.895 E61.82147
G1 X156.826 Y99.983 E61.84408
G1 X156.197 Y100.244 E61.86673
G1 X155.658 Y100.658 E61.88933
G1 X155.244 Y101.197 E61.91194
G1 X154.983 Y101.826 E61.93459
G1 X154.895 Y102.5 E61.9572
G1 X154.983 Y103.174 E61.9798
G1 X155.244 Y103.803 E62.00246
G1 X155.658 Y104.342 E62.02506
G1 X156.197 Y104.756 E62.04767
G1 X156.826 Y105.017 E62.07032
G0 F6000 X156.93 Y104.627
;TYPE:WALL-OUTER
G1 F1200 X157.5 Y104.702 E62.08944
G1 X158.07 Y104.627 E62.10856
G1 X158.601 Y104.407 E62.12768
G1 X159.057 Y104.057 E62.14679
G1 X159.407 Y103.601 E62.16591
G1 X159.627 Y103.07 E62.18503
G1 X159.702 Y102.5 E62.20415
G1 X159.627 Y101.93 E62.22327
G1 X159.407 Y101.399 E62.24239
G1 X159.057 Y100.943 E62.26151
G1 X158.601 Y100.593 E62.28063
G1 X158.07 Y100.373 E62.29975
G1 X157.5 Y100.298 E62.31887
G1 X156.93 Y100.373 E62.33799
G1 X156.399 Y100.593 E62.35711
G1 X155.943 Y100.943 E62.37623
G1 X155.593 Y101.399 E62.39534
G1 X155.373 Y101.93 E62.41446
G1 X155.298 Y102.5 E62.43358
G1 X155.373 Y103.07 E62.45271
G1 X155.593 Y103.601 E62.47182
G1 X155.943 Y104.057 E62.49094
G1 X156.399 Y104.407 E62.51006
G1 X156.93 Y104.627 E62.52918
G0 F6000 X156.817 Y105.052
G1 F1500 E56.02918
G0 F6000 X155.522 Y104.478
G0 X156.56 Y103.44
G0 X98.813 Y102.972
G0 X98.653 Y103.163
G0 X96.347 Y103.163
G0 X96.176 Y102.951
G0 X60.59 Y102.663
G0 X60.415 Y102.72
G0 X59.585 Y102.72
G0 X59.396 Y102.654
G0 X29.72 Y102.415
G0 X30.99 Y103.149
G0 X30.052 Y103.824
;TYPE:WALL-INNER
G1 F1500 E62.52918
G1 F1200 X30.489 Y103.489 E62.54749
G1 X30.824 Y103.052 E62.56581
G1 X31.034 Y102.544 E62.58409
G1 X31.105 Y102 E62.60234
G1 X31.034 Y101.456 E62.62058
G1 X30.824 Y100.948 E62.63887
